X:28
T:A Long Time Ago (a)
M:3/4
L:1/8
Q:1/4=120
K:Ab
E2 F2 G2|A2 B2 c2|A2 B2 cc|A2 G2 F2|
E2(3E2F2G2|A4  E2|B4    F2|c4    A2|
E4    c2|d2 d2 d2|d2 c2 BB|A2 G2 F2|
E2 c2 d2|c6      |B2 A2 B2|A6      ||
